X: 150
M: 3/4
L: 1/8
K: Bm
d> c B2 zc | ^A> ^G F2 zc |
d> e d3 f | e> d c3 {de}f |
d> c B3 c | ^A> B F3 ][ c | d> A
d> e f2 ze | d> d d3 d | e> f
a2 za | (b/a/) (g/f/) {ef}g2 f> e | (d>c) B3 |]

